svgs/sharp-regular/kit-medical.svg

<svg xmlns="http://www.w3.org/2000/svg" viewBox="0 0 576 512"><!--! Font Awesome Pro 6.6.0 by @fontawesome - https://fontawesome.com License - https://fontawesome.com/license (Commercial License) Copyright 2024 Fonticons, Inc. --><path d="M144 432l0-352 288 0 0 352-288 0zm-48 0l-48 0L48 80l48 0 0 352zM120 32L96 32 48 32 0 32 0 80 0 432l0 48 48 0 48 0 24 0 24 0 288 0 24 0 24 0 48 0 48 0 0-48 0-352 0-48-48 0-48 0-24 0-24 0L144 32l-24 0zM528 432l-48 0 0-352 48 0 0 352zM256 160l0 64-64 0 0 64 64 0 0 64 64 0 0-64 64 0 0-64-64 0 0-64-64 0z"/></svg>

<svg xmlns="http://www.w3.org/2000/svg" viewBox="0 0 576 512"><!--! Font Awesome Pro 6.4.2 by @fontawesome - https://fontawesome.com License - https://fontawesome.com/license (Commercial License) Copyright 2023 Fonticons, Inc. --><path d="M144 432V80H432V432H144zm-48 0H48V80H96V432zM120 32H96 48 0V80 432v48H48 96h24 24H432h24 24 48 48V432 80 32H528 480 456 432 144 120zM528 432H480V80h48V432zM256 160v64H192v64h64v64h64V288h64V224H320V160H256z"/></svg>
